packages/tokens/icons/pipeline/size24Px.svg

<svg viewBox="0 0 24 24" fill="none" xmlns="http://www.w3.org/2000/svg" width="1em" height="1em"><path d="M6.5 19.5V16.5C6.5 14.2909 8.29086 12.5 10.5 12.5H11.5M8 6.5H11.5M8 3.5H11.5M9.5 19.5V16.5C9.5 15.9477 9.94772 15.5 10.5 15.5H11.5M13.5 12.5H15.5C16.0523 12.5 16.5 12.0523 16.5 11.5V7.5C16.5 6.94772 16.0523 6.5 15.5 6.5H13.5M13.5 15.5H15.5C17.7091 15.5 19.5 13.7091 19.5 11.5V7.5C19.5 5.29086 17.7091 3.5 15.5 3.5H13.5" stroke="currentColor" stroke-linecap="round"/><path d="M5.5 20C5.5 19.7239 5.72386 19.5 6 19.5H10C10.2761 19.5 10.5 19.7239 10.5 20V21C10.5 21.2761 10.2761 21.5 10 21.5H6C5.72386 21.5 5.5 21.2761 5.5 21V20Z" stroke="currentColor" stroke-linecap="round"/><path d="M11.5 12C11.5 11.7239 11.7239 11.5 12 11.5L13 11.5C13.2761 11.5 13.5 11.7239 13.5 12V16C13.5 16.2761 13.2761 16.5 13 16.5H12C11.7239 16.5 11.5 16.2761 11.5 16V12Z" stroke="currentColor" stroke-linecap="round"/><path d="M11.5 3C11.5 2.72386 11.7239 2.5 12 2.5H13C13.2761 2.5 13.5 2.72386 13.5 3V7C13.5 7.27614 13.2761 7.5 13 7.5H12C11.7239 7.5 11.5 7.27614 11.5 7V3Z" stroke="currentColor" stroke-linecap="round"/><path d="M7 2.5C7.27614 2.5 7.5 2.72386 7.5 3L7.5 7C7.5 7.27614 7.27614 7.5 7 7.5L6 7.5C5.72386 7.5 5.5 7.27614 5.5 7L5.5 3C5.5 2.72386 5.72386 2.5 6 2.5L7 2.5Z" stroke="currentColor" stroke-linecap="round"/></svg>

<svg xmlns="http://www.w3.org/2000/svg" fill="none" viewBox="0 0 24 24" width="1em" height="1em"><path stroke="currentColor" stroke-linecap="round" d="M6.5 19.5v-3a4 4 0 0 1 4-4h1M8 6.5h3.5M8 3.5h3.5m-2 16v-3a1 1 0 0 1 1-1h1m2-3h2a1 1 0 0 0 1-1v-4a1 1 0 0 0-1-1h-2m0 9h2a4 4 0 0 0 4-4v-4a4 4 0 0 0-4-4h-2M5.5 20a.5.5 0 0 1 .5-.5h4a.5.5 0 0 1 .5.5v1a.5.5 0 0 1-.5.5H6a.5.5 0 0 1-.5-.5v-1Zm6-8a.5.5 0 0 1 .5-.5h1a.5.5 0 0 1 .5.5v4a.5.5 0 0 1-.5.5h-1a.5.5 0 0 1-.5-.5v-4Zm0-9a.5.5 0 0 1 .5-.5h1a.5.5 0 0 1 .5.5v4a.5.5 0 0 1-.5.5h-1a.5.5 0 0 1-.5-.5V3ZM7 2.5a.5.5 0 0 1 .5.5v4a.5.5 0 0 1-.5.5H6a.5.5 0 0 1-.5-.5V3a.5.5 0 0 1 .5-.5h1Z"/></svg>
